X: 37401
T: Sleepy Maggie
R: reel
M: 4/4
K: Adorian
e2Aa edBd|e2 e/f/g edBd|e2Aa edBd|efge dGBd:|
eA~A2 edBd|eA~A2 BGBd|eA~A2 edBd|efge dGBd:|

